X: 1
T:DONALD MacLEAN'S FAREWELL TO OBAN
M:C|
L:1/8
Q:80
C:Archibald MacNeill
S:March
K:HP
|: {g}A3/2B/2|
{gcd}c{g}B/2{d}A/2{gef}e{g}f3/4e/4|
c/4e3/4{g}A3/4{d}B/4{gcd}c{ag}a|  !
{fg}f3/4e/4a3/4f/4{g}e/4f3/4{g}A3/4{d}c/4|
{gef}e3/4c/4B/4{d}A3/4{gBd}B{g}A/2B/4| |
{gcd}c{g}B/2{d}A/2{gef}e{g}f3/4e/4|  !
c/4e3/4{g}A3/4{d}B/4{gcd}c{ag}a|
{fg}f3/4e/4a3/4f/4{g}e/4f3/4{g}A3/4{d}B/4|
{gcd}c{e}A{GAG}A:| |:  !
{g}c3/4d/4|
{gef}e{g}c3/4d/4{g}c/4e3/4f3/4g/4|
{ag}af3/4g/4{ag}a3/2f/2|  !
{gef}e3/4c/4a3/4f/4{g}e/4f3/4{g}A3/4{d}c/4|
{gef}e3/4c/4B/4{d}A3/4{gBd}B{g}c3/4d/4|
{gef}e{g}c3/4d/4{g}c/4e3/4f3/4g/4|  !
{ag}af3/4g/4{ag}a3/2f/2|
{gef}e3/4c/4a3/4f/4{g}e/4f3/4{g}A3/4{d}B/4|
{gcd}c{e}A{AGAG}A:| |:  !
{g}A3/4B/4|
{g}c/4{d}A3/4{g}c3/4d/4{gef}e3/4A/4{g}d3/4e/4|
{g}f3/4A/4{gef}e3/4A/4{gcd}c{g}f3/4g/4|  !
a3/4A/4{gde}d3/4c/4{g}f3/4A/4{g}c3/4d/4|
{gef}e3/4c/4{g}B/4{d}A3/4{gBd}B{g}A3/4B/4|
{g}c/4{d}A3/4{g}c3/4d/4{gef}e3/4A/4{g}d3/4e/4|  !
{g}f3/4A/4{gef}e3/4A/4{gcd}c{g}f3/4g/4|
a{GdG}a/2f/4{g}e/4f3/4{g}A3/4{d}B/4|
{gcd}c{e}A{GAG}A:| [|  !
{g}c3/4d/4|
{gef}ea3/4e/4{gcd}ca3/4e/4|
{g}f3/4g/4a3/4f/4{Gdc}da3/4f/4|  !
{gef}e{g}f3/4e/4{gcd}c{g}A3/4{d}c/4|
{gef}e3/4c/4{g}B/4{d}A3/4{gBd}B{g}c3/4d/4|
{gef}ea3/4e/4{gcd}ca3/4e/4|  !
{g}f3/4g/4a3/4f/4{Gdc}da3/4f/4|
{fg}f3/4e/4a3/4f/4{g}e/4f3/4{g}A3/4{d}B/4|
{gcd}c{e}A{GAG}A|] [|  !
{g}c3/4d/4|
{gef}ea3/4e/4{gcd}ca3/4e/4|
{g}f3/4g/4a3/4f/4{Gdc}da3/4f/4|  !
{gef}e{g}f3/4e/4{gcd}c{g}A3/4{d}c/4|
{gef}e3/4c/4{g}B/4{d}A3/4{gBd}B{g}A3/4{d}B/4| |
{g}c/4e3/4{g}d3/4f/4{gef}e3/4c/4{g}B/4{d}c3/4|  !
{gde}d3/4c/4{g}B/4{d}A3/4{gcd}c{ag}a|
{fg}f3/4e/4a3/4f/4{g}e/4f3/4{g}A3/4{d}B/4|
{gcd}c{e}A{GAG}A|]  !
